X:1
T:What a Greeting
T:What a Greeting
T:Haldor Lillenas
T:Haldor Lillenas, 1910
T:Public Domain Courtesy of the Cyber Hymnal™
T:Public Domain Courtesy of the Cyber Hymnal™
C:Haldor Lillenas
Z:Public Domain
Z:Courtesy of the Cyber Hymnal™
%%score ( 1 2 ) ( 3 4 )
L:1/8
Q:1/4=90
M:4/4
K:Bb
V:1 treble 
V:2 treble 
V:3 bass 
V:4 bass 
V:1
 [B,D][CE] | [DF]>[DB] [DB]>[DB] [DB]>[FA] [EG][DF] | [CE]>[EA] [EA]>[EA] [EA]2 C[B,D] | %3
w: 1.~On the|great e- ter- nal morn- ing, when we’ll|hear the trump- et blast, When e-|
w: 2.~When the|sun of right- eous- ness shall rise a-|bove the east- ern hills, When its|
w: 3.~There will|be no sin or e- vil, and the|tempt- er will be bound; In the|
 [B,E]>[EA] [EA]>[EA] [EA]>[EG] [DF][CE] | [B,D]>[DF] [DF]>[DG] [DF]2 [B,D][CE] | %5
w: ter- nal day is dawn- ing and the|night of sin is past; When we|
w: gold- en rays in splen- dor glit- ter|o’er the rocks and rills, On that|
w: place of grief and sor- row shouts of|glo- ry will re- sound; We shall|
 [DF]>[DB] [DB]>[DB] [DB]>[FA] [EG][DF] | [CE]>[EA] [EA]>[EA] [EA]2 [=EA][EB] | %7
w: see the Sav- ior com- ing in His|glor- i- ous ar- ray, Hal- le-|
w: res- ur- rect- ion morn- ing when the|dead in Christ shall rise, We will|
w: reign with Christ a thou- sand years, His|face we then shall see; Hal- le-|
 [=Ec]>[Ed] [Ec]>[EB] [EA]>[EB] [EA][EG] | [CF]2 [C=E]2 !fermata!F2 ||"^Refrain" D>E | %10
w: lu- jah! what a greet- ing there will|be that day!||
w: shout to meet each o- ther yon- der|in the skies.|What a|
w: lu- jah! what a time of glo- ry|that will be!||
 (z2 B2) B>A x2 | (z2 E>E) [EA]>[EG] x2 | [DF]>[EG] [DF]>[CE] C2 [CF]>[CE] | D6 D>E | %14
w: ||||
w: * greet- ing,|* * what a|meet- ing, When our Sav- ior we|shall see by|
w: ||||
 (z2 B2) d>d x2 | c2 d2 e2 [Fd][Ec] | [DB]>[DF] [^C=E]>[DF] [Fd]2 [Fd]>[_E=c] | [DB]6 |] %18
w: ||||
w: * and by!|What a greet- ing, what|a meet- ing, When the bless- èd|Sav-|
w: ||||
V:2
 x2 | x8 | x6 C x | x8 | x8 | x8 | x8 | x8 | x4 (C_E) || x2 | (F4 D>D) (D>D) | (G4 E>E) x2 | %12
 x4 C2 x2 | (B,2 B,>B, B,2) x2 | (F4 D>D) (D>D) | (E>E F>F) (G>G) x2 | x8 | x6 |] %18
V:3
 [B,,F,][B,,F,] | [B,,B,]>[B,,B,] [B,,B,]>[B,,B,] [B,,B,]>[D,B,] [E,B,][F,B,] | %2
w: ~ ~|~ ~ ~ ~ ~ ~ ~ ~|
 [F,A,]>[F,C] [F,C]>[F,C] [F,C]2 [F,A,][F,B,] | %3
w: ~ ~ ~ ~ ~ ~ ~|
 [F,A,]>[F,C] [F,C]>[F,C] [F,C]>[F,B,] [F,B,][F,A,] | %4
w: ~ ~ ~ ~ ~ ~ ~ ~|
 [B,,F,]>[B,,B,] [B,,B,]>[B,,B,] [B,,B,]2 [B,,F,][B,,F,] | %5
w: ~ ~ ~ ~ ~ ~ ~|
 [B,,B,]>[B,,B,] [B,,B,]>[B,,B,] [B,,B,]>[D,B,] [E,B,][F,B,] | %6
w: ~ ~ ~ ~ ~ ~ ~ ~|
 [F,A,]>[F,C] [F,C]>[F,C] [F,C]2 [C,C][C,C] | [C,C]>[C,C] [C,C]>[C,C] [C,C]>[C,C] [C,C][C,B,] | %8
w: ~ ~ ~ ~ ~ ~ ~|~ ~ ~ ~ ~ ~ ~ ~|
 [F,A,]2 (G,B,) !fermata![F,A,]2 || z2 | z2 [B,,B,]>[B,,B,] [B,,B,]>[B,,B,] z2 | %11
w: ~ ~ * ~||What a greet- ing,|
 z2 [E,B,]>[E,B,] [E,B,]>[E,B,] [E,B,]>[E,B,] | [F,B,]>[F,A,] [F,B,]>[F,A,] [F,A,]2 [F,A,]>[F,A,] | %13
w: What a meet- ing, ~ ~|~ ~ ~ ~ ~ ~ ~|
 [B,,F,]2 [B,,F,]>[B,,F,] [B,,F,]2 z2 | z2 [B,,B,]>[B,,B,] [B,,B,]>[B,,B,] z2 | %15
w: ~ by and by!|What a greet- ing,|
 [E,B,]>[E,B,] [D,=B,]>[D,B,] [C,C]>[C,C] [D,B,][E,_B,] | %16
w: What a hap- py meet- ing * *|
 [F,B,]>[F,B,] [G,B,]>[F,B,] [F,B,]2 [F,B,]>[F,A,] | [B,,B,]6 |] %18
w: ||
V:4
 x2 | x8 | x8 | x8 | x8 | x8 | x8 | x8 | x2 C,2 x2 || x2 | x8 | x8 | x8 | x8 | x8 | x8 | x8 | x6 |] %18

